src/img/products/products-hero-list-1.svg

<svg xmlns="http://www.w3.org/2000/svg" xmlns:xlink="http://www.w3.org/1999/xlink" width="26px" height="23px">
	<path fill-rule="evenodd" fill="rgb(146, 181, 73)"
		d="M12.955,12.550 L12.955,10.121 L25.101,10.121 L25.101,12.550 L12.955,12.550 ZM12.955,3.643 L25.101,3.643 L25.101,6.72 L12.955,6.72 L12.955,3.643 ZM4.858,22.672 C2.175,22.672 0.0,20.497 0.0,17.813 L0.0,4.857 C0.0,2.174 2.175,0.0 4.858,0.0 C7.541,0.0 9.716,2.174 9.716,4.857 L9.716,17.813 C9.716,20.497 7.541,22.672 4.858,22.672 ZM7.287,4.857 C7.287,3.515 6.200,2.428 4.858,2.428 C3.516,2.428 2.429,3.515 2.429,4.857 L2.429,17.813 C2.429,19.155 3.516,20.242 4.858,20.242 C6.200,20.242 7.287,19.155 7.287,17.813 L7.287,4.857 ZM21.862,19.28 L12.955,19.28 L12.955,16.599 L21.862,16.599 L21.862,19.28 Z" />
</svg>

<svg xmlns="http://www.w3.org/2000/svg" width="26" height="23"><path fill-rule="evenodd" fill="#92B549" d="M12.96 12.55v-2.43h12.14v2.43h-12.15Zm0-8.9h12.14v3.07h-12.15v-3.08Zm-8.1 19.02a4.86 4.86 0 0 1-4.86-4.86v-12.95a4.86 4.86 0 0 1 9.72 0v12.95a4.86 4.86 0 0 1-4.86 4.86Zm2.43-17.81a2.43 2.43 0 1 0-4.86 0v12.95a2.43 2.43 0 1 0 4.86 0v-12.95Zm14.57 14.42h-8.9v-2.68h8.9v2.68Z"/></svg>
